X:1
T:Simple Gifts
M:C
L:1/8
Q:80
C:Trad.
S:Hymn
K:HP
A{d}A | \
{Gdc}d2{g}de{gfg}fd{g}fg | \
a2{g}ag{fg}f2ed |
{gef}e2{A}e2{g}e2d2 | \
{g}ef{g}ec{G}A2{GAG}A2 | \
{Gdc}d2{g}de{gfg}fd{g}fg |
a2{g}ag{fg}f2ed | \
{gef}e2{A}e2f2{gfg}fe | \
{Gdc}d2{gdG}de{Gdc}d4|]
{ag}a4{fg}f3e | \
{g}fg{fg}fe{Gdc}d2{g}de | \
f2{e}fg{ag}a2gf |
{gef}e2{A}ef{g}e2A{d}A | \
{Gdc}d2{g}de{gfg}fd{g}fg | \
a2{g}ag{fg}f2ed |
{gef}e2{A}e2f2{gfg}fe | \
{Gdc}d2{gdG}de{Gdc}d2|]
